X: 13768
T: Form A Line
R: polka
M: 2/4
K: Edorian
E2 EF|ED E2|cA FE|DA AF|
E2 EF|ED E2|GF DC|A,2 A,2:|
|:ce ed|cA A2|Bc dB|Ad d2|
[1 ce ed|cA B2|BA FE|D2 D2:|
[2 ce ed|cA BA|BA FE|DA AF||

